cssgg/more-vertical-alt.svg

<svg
  width="24"
  height="24"
  viewBox="0 0 24 24"
  fill="none"
  xmlns="http://www.w3.org/2000/svg"
>
  <path
    d="M14 6C14 7.10457 13.1046 8 12 8C10.8954 8 10 7.10457 10 6C10 4.89543 10.8954 4 12 4C13.1046 4 14 4.89543 14 6Z"
    fill="currentColor"
  />
  <path
    d="M14 12C14 13.1046 13.1046 14 12 14C10.8954 14 10 13.1046 10 12C10 10.8954 10.8954 10 12 10C13.1046 10 14 10.8954 14 12Z"
    fill="currentColor"
  />
  <path
    d="M14 18C14 19.1046 13.1046 20 12 20C10.8954 20 10 19.1046 10 18C10 16.8954 10.8954 16 12 16C13.1046 16 14 16.8954 14 18Z"
    fill="currentColor"
  />
</svg>

<svg viewBox="0 0 24 24" xmlns="http://www.w3.org/2000/svg"><g><path d="M14 6c0 1.1-.9 2-2 2 -1.11 0-2-.9-2-2 0-1.11.89-2 2-2 1.1 0 2 .89 2 2Z"/><path d="M14 12c0 1.1-.9 2-2 2 -1.11 0-2-.9-2-2 0-1.11.89-2 2-2 1.1 0 2 .89 2 2Z"/><path d="M14 18c0 1.1-.9 2-2 2 -1.11 0-2-.9-2-2 0-1.11.89-2 2-2 1.1 0 2 .89 2 2Z"/></g></svg>
